src/Static/Positions/ks-position-20.svg

<?xml version="1.0" encoding="UTF-8"?>
<svg width="160px" height="72px" viewBox="0 0 160 72" version="1.1" xmlns="http://www.w3.org/2000/svg" xmlns:xlink="http://www.w3.org/1999/xlink">
    <title>sex-etsy-20</title>
    <defs>
        <path d="M92.3328475,38.274806 C96.3762557,39.2383049 101.272406,40.9063963 106.825193,43.8925143 C107.687877,50.3489622 112.738688,51.7381406 115.682171,50.4654623 L113.282767,40.0124076 C113.013264,38.8378644 113.211954,37.6273093 113.842519,36.6040984 C114.473135,35.5806309 115.4604,34.8670097 116.622007,34.5944579 C116.954917,34.5163294 117.295182,34.476983 117.634026,34.476983 C119.720506,34.476983 121.507251,35.913767 121.979351,37.9709617 L123.323569,43.8270567 C123.545238,43.8370087 123.762038,43.8433185 123.997504,43.863479 C127.025039,40.1371669 126.910197,34.6721759 121.63584,31.2625329 C119.671455,31.3839064 117.745317,31.1728621 116.051907,30.2120821 C115.646612,29.9821597 115.284384,29.7419776 114.940974,29.497948 C110.551975,29.4544977 105.076847,29.8939254 94.3576965,22.080361 C87.684541,17.2159793 83.4659279,21.7224988 81.6284578,26.9877313 L82.3168496,26.8647674 C82.6175487,26.8106469 82.9251464,26.7830993 83.229802,26.7830993 C85.7670772,26.7830993 87.9288337,28.6191438 88.370701,31.1485464 C88.6134212,32.5387508 88.3067872,33.9409592 87.5067999,35.0971886 C86.7068125,36.253418 85.5089873,37.0254175 84.1348413,37.2708835 L81.2873307,37.7797188 L84.8123273,53.2271983 L61.3261475,53.2271983 C58.3846938,53.2271983 56,55.6388695 56,58.6135991 C56,61.5883288 58.3846938,64 61.3261475,64 L91.5076497,64 C93.130958,64 94.6650913,63.2515468 95.6756391,61.9668132 C96.6861868,60.6823362 97.062162,59.0018304 96.6975492,57.4024797 L92.3328475,38.274806 Z" id="path-1"></path>
        <filter x="-11.4%" y="-13.6%" width="122.9%" height="136.4%" filterUnits="objectBoundingBox" id="filter-2">
            <feMorphology radius="1" operator="dilate" in="SourceAlpha" result="shadowSpreadOuter1"></feMorphology>
            <feOffset dx="0" dy="2" in="shadowSpreadOuter1" result="shadowOffsetOuter1"></feOffset>
            <feGaussianBlur stdDeviation="2" in="shadowOffsetOuter1" result="shadowBlurOuter1"></feGaussianBlur>
            <feComposite in="shadowBlurOuter1" in2="SourceAlpha" operator="out" result="shadowBlurOuter1"></feComposite>
            <feColorMatrix values="0 0 0 0 0   0 0 0 0 0   0 0 0 0 0  0 0 0 0.5 0" type="matrix" in="shadowBlurOuter1"></feColorMatrix>
        </filter>
        <path d="M121.611188,37.6527834 C121.193153,35.8091563 119.395682,34.6619379 117.592183,35.0893371 C115.790694,35.5172109 114.669392,37.3590453 115.087427,39.2026724 L120.110024,61.3477099 C120.462687,62.9006571 121.81441,64 123.371878,64 L145.651602,64 C147.500845,64 149,62.4655598 149,60.5727918 C149,58.6800238 147.500845,57.1455836 145.651602,57.1455836 L126.032103,57.1455836 L121.611188,37.6527834 Z" id="path-3"></path>
        <filter x="-23.5%" y="-20.7%" width="147.1%" height="155.2%" filterUnits="objectBoundingBox" id="filter-4">
            <feMorphology radius="1" operator="dilate" in="SourceAlpha" result="shadowSpreadOuter1"></feMorphology>
            <feOffset dx="0" dy="2" in="shadowSpreadOuter1" result="shadowOffsetOuter1"></feOffset>
            <feGaussianBlur stdDeviation="2" in="shadowOffsetOuter1" result="shadowBlurOuter1"></feGaussianBlur>
            <feComposite in="shadowBlurOuter1" in2="SourceAlpha" operator="out" result="shadowBlurOuter1"></feComposite>
            <feColorMatrix values="0 0 0 0 0   0 0 0 0 0   0 0 0 0 0  0 0 0 0.5 0" type="matrix" in="shadowBlurOuter1"></feColorMatrix>
        </filter>
        <path d="M116.383849,29.1218964 C121.528648,31.9010295 129.846991,27.0063353 133.191517,29.0869919 C133.838941,28.8147077 134.518507,28.5913767 135.229962,28.4296959 C135.820977,28.2953884 136.412244,28.2067512 137,28.1602119 C135.259896,24.8326965 131.781994,21.4529451 123.549293,23.6993378 C115.458541,25.9070121 113.456248,23.5850171 112.985371,21.4393309 C112.514494,19.2936447 109.708335,25.5158691 116.383849,29.1218964 Z" id="path-5"></path>
        <filter x="-32.0%" y="-68.8%" width="166.1%" height="279.7%" filterUnits="objectBoundingBox" id="filter-6">
            <feMorphology radius="1" operator="dilate" in="SourceAlpha" result="shadowSpreadOuter1"></feMorphology>
            <feOffset dx="0" dy="2" in="shadowSpreadOuter1" result="shadowOffsetOuter1"></feOffset>
            <feGaussianBlur stdDeviation="2" in="shadowOffsetOuter1" result="shadowBlurOuter1"></feGaussianBlur>
            <feComposite in="shadowBlurOuter1" in2="SourceAlpha" operator="out" result="shadowBlurOuter1"></feComposite>
            <feColorMatrix values="0 0 0 0 0   0 0 0 0 0   0 0 0 0 0  0 0 0 0.5 0" type="matrix" in="shadowBlurOuter1"></feColorMatrix>
        </filter>
        <circle id="path-7" cx="139" cy="40" r="11"></circle>
        <filter x="-36.4%" y="-27.3%" width="172.7%" height="172.7%" filterUnits="objectBoundingBox" id="filter-8">
            <feMorphology radius="1" operator="dilate" in="SourceAlpha" result="shadowSpreadOuter1"></feMorphology>
            <feOffset dx="0" dy="2" in="shadowSpreadOuter1" result="shadowOffsetOuter1"></feOffset>
            <feGaussianBlur stdDeviation="2" in="shadowOffsetOuter1" result="shadowBlurOuter1"></feGaussianBlur>
            <feComposite in="shadowBlurOuter1" in2="SourceAlpha" operator="out" result="shadowBlurOuter1"></feComposite>
            <feColorMatrix values="0 0 0 0 0   0 0 0 0 0   0 0 0 0 0  0 0 0 0.5 0" type="matrix" in="shadowBlurOuter1"></feColorMatrix>
        </filter>
        <path d="M47.8549548,14.7183128 C48.7133787,14.1587744 49.7060692,13.8628513 50.726249,13.8628513 C52.5252569,13.8628513 54.1830234,14.7671095 55.1616616,16.2817124 L57.9000739,20.5220234 C58.9158944,18.8234154 59.3067958,16.9352372 58.7370604,15.1419214 C57.3638282,10.823546 52.005833,6.65403394 44.2599135,8.41246556 C33.6241343,10.8929537 27.4998759,13.8084381 18.5044773,20.9584624 C12.3235993,26.690292 14.5764364,31.9756862 17.097858,35.9611416 C17.6127688,36.7749689 18.0863943,37.483989 18.5639177,38.0653236 L27.2902191,51.1175793 L6.41074155,51.1180946 C2.87006335,51.1180946 0,54.001941 0,57.5590473 C0,61.1161536 2.87031978,64 6.41074155,64 L39.3191294,64 C41.6876163,64 43.8627553,62.687643 44.9766344,60.5877894 C46.0905136,58.4879357 45.961273,55.9422651 44.6408141,53.9672114 L31.4425333,34.2261036 C37.1386054,30.766436 43.8231625,28.3644244 49.1054084,26.4052927 L46.2987858,22.0594531 C44.7136914,19.6048833 45.411334,16.3119591 47.8549548,14.7183128 Z" id="path-9"></path>
        <filter x="-13.6%" y="-10.7%" width="127.1%" height="128.6%" filterUnits="objectBoundingBox" id="filter-10">
            <feMorphology radius="1" operator="dilate" in="SourceAlpha" result="shadowSpreadOuter1"></feMorphology>
            <feOffset dx="0" dy="2" in="shadowSpreadOuter1" result="shadowOffsetOuter1"></feOffset>
            <feGaussianBlur stdDeviation="2" in="shadowOffsetOuter1" result="shadowBlurOuter1"></feGaussianBlur>
            <feComposite in="shadowBlurOuter1" in2="SourceAlpha" operator="out" result="shadowBlurOuter1"></feComposite>
            <feColorMatrix values="0 0 0 0 0   0 0 0 0 0   0 0 0 0 0  0 0 0 0.5 0" type="matrix" in="shadowBlurOuter1"></feColorMatrix>
        </filter>
        <ellipse id="path-11" cx="72.0778003" cy="15.1038278" rx="11.5155191" ry="11.4848403"></ellipse>
        <filter x="-34.7%" y="-26.1%" width="169.5%" height="169.7%" filterUnits="objectBoundingBox" id="filter-12">
            <feMorphology radius="1" operator="dilate" in="SourceAlpha" result="shadowSpreadOuter1"></feMorphology>
            <feOffset dx="0" dy="2" in="shadowSpreadOuter1" result="shadowOffsetOuter1"></feOffset>
            <feGaussianBlur stdDeviation="2" in="shadowOffsetOuter1" result="shadowBlurOuter1"></feGaussianBlur>
            <feComposite in="shadowBlurOuter1" in2="SourceAlpha" operator="out" result="shadowBlurOuter1"></feComposite>
            <feColorMatrix values="0 0 0 0 0   0 0 0 0 0   0 0 0 0 0  0 0 0 0.5 0" type="matrix" in="shadowBlurOuter1"></feColorMatrix>
        </filter>
        <path d="M83.7021518,35.048741 C85.8733615,34.6545946 87.3219489,32.5262756 86.9384597,30.2952407 C86.5549705,28.0636929 84.4773629,26.5738747 82.3134876,26.9689955 L63.5036546,30.38488 L54.3403772,15.8699222 C53.1402644,13.9693939 50.6684402,13.4280707 48.8193495,14.6615347 C46.9702588,15.8949987 46.4435224,18.435515 47.6436351,20.3359921 L58.2462196,37.130548 C58.9902466,38.3093976 60.2576172,39 61.5936426,39 C61.8241054,39 62.057013,38.9794876 62.2889726,38.9373858 L83.7021518,35.048741 Z" id="path-13"></path>
        <filter x="-20.0%" y="-24.0%" width="140.0%" height="164.0%" filterUnits="objectBoundingBox" id="filter-14">
            <feMorphology radius="1" operator="dilate" in="SourceAlpha" result="shadowSpreadOuter1"></feMorphology>
            <feOffset dx="0" dy="2" in="shadowSpreadOuter1" result="shadowOffsetOuter1"></feOffset>
            <feGaussianBlur stdDeviation="2" in="shadowOffsetOuter1" result="shadowBlurOuter1"></feGaussianBlur>
            <feComposite in="shadowBlurOuter1" in2="SourceAlpha" operator="out" result="shadowBlurOuter1"></feComposite>
            <feColorMatrix values="0 0 0 0 0   0 0 0 0 0   0 0 0 0 0  0 0 0 0.5 0" type="matrix" in="shadowBlurOuter1"></feColorMatrix>
        </filter>
    </defs>
    <g id="Page-2" stroke="none" stroke-width="1" fill="none" fill-rule="evenodd">
        <g id="sex-etsy-20" transform="translate(5.000000, 1.000000)" fill-rule="nonzero">
            <g id="Path">
                <use fill="black" fill-opacity="1" filter="url(#filter-2)" xlink:href="#path-1"></use>
                <use stroke="#1A1A1D" stroke-width="2" fill="#6F2232" xlink:href="#path-1"></use>
            </g>
            <g id="Path">
                <use fill="black" fill-opacity="1" filter="url(#filter-4)" xlink:href="#path-3"></use>
                <use stroke="#1A1A1D" stroke-width="2" fill="#6F2232" xlink:href="#path-3"></use>
            </g>
            <g id="Path">
                <use fill="black" fill-opacity="1" filter="url(#filter-6)" xlink:href="#path-5"></use>
                <use stroke="#1A1A1D" stroke-width="2" fill="#6F2232" xlink:href="#path-5"></use>
            </g>
            <g id="Oval">
                <use fill="black" fill-opacity="1" filter="url(#filter-8)" xlink:href="#path-7"></use>
                <use stroke="#1A1A1D" stroke-width="2" fill="#6F2232" xlink:href="#path-7"></use>
            </g>
            <g id="Path">
                <use fill="black" fill-opacity="1" filter="url(#filter-10)" xlink:href="#path-9"></use>
                <use stroke="#1A1A1D" stroke-width="2" fill="#4E4E50" xlink:href="#path-9"></use>
            </g>
            <g id="Oval" transform="translate(72.077800, 15.103828) rotate(-69.696762) translate(-72.077800, -15.103828) ">
                <use fill="black" fill-opacity="1" filter="url(#filter-12)" xlink:href="#path-11"></use>
                <use stroke="#1A1A1D" stroke-width="2" fill="#4E4E50" xlink:href="#path-11"></use>
            </g>
            <g id="Path">
                <use fill="black" fill-opacity="1" filter="url(#filter-14)" xlink:href="#path-13"></use>
                <use stroke="#1A1A1D" stroke-width="2" fill="#4E4E50" xlink:href="#path-13"></use>
            </g>
        </g>
    </g>
</svg>

<svg xmlns="http://www.w3.org/2000/svg" xmlns:xlink="http://www.w3.org/1999/xlink" width="160" height="72"><defs><filter id="g" width="172.7%" height="172.7%" x="-36.4%" y="-27.3%" filterUnits="objectBoundingBox"><feMorphology in="SourceAlpha" operator="dilate" radius="1" result="shadowSpreadOuter1"/><feOffset dy="2" in="shadowSpreadOuter1" result="shadowOffsetOuter1"/><feGaussianBlur in="shadowOffsetOuter1" result="shadowBlurOuter1" stdDeviation="2"/><feComposite in="shadowBlurOuter1" in2="SourceAlpha" operator="out" result="shadowBlurOuter1"/><feColorMatrix in="shadowBlurOuter1" values="0 0 0 0 0 0 0 0 0 0 0 0 0 0 0 0 0 0 0.5 0"/></filter><filter id="m" width="140%" height="164%" x="-20%" y="-24%" filterUnits="objectBoundingBox"><feMorphology in="SourceAlpha" operator="dilate" radius="1" result="shadowSpreadOuter1"/><feOffset dy="2" in="shadowSpreadOuter1" result="shadowOffsetOuter1"/><feGaussianBlur in="shadowOffsetOuter1" result="shadowBlurOuter1" stdDeviation="2"/><feComposite in="shadowBlurOuter1" in2="SourceAlpha" operator="out" result="shadowBlurOuter1"/><feColorMatrix in="shadowBlurOuter1" values="0 0 0 0 0 0 0 0 0 0 0 0 0 0 0 0 0 0 0.5 0"/></filter><filter id="k" width="169.5%" height="169.7%" x="-34.7%" y="-26.1%" filterUnits="objectBoundingBox"><feMorphology in="SourceAlpha" operator="dilate" radius="1" result="shadowSpreadOuter1"/><feOffset dy="2" in="shadowSpreadOuter1" result="shadowOffsetOuter1"/><feGaussianBlur in="shadowOffsetOuter1" result="shadowBlurOuter1" stdDeviation="2"/><feComposite in="shadowBlurOuter1" in2="SourceAlpha" operator="out" result="shadowBlurOuter1"/><feColorMatrix in="shadowBlurOuter1" values="0 0 0 0 0 0 0 0 0 0 0 0 0 0 0 0 0 0 0.5 0"/></filter><filter id="c" width="147.1%" height="155.2%" x="-23.5%" y="-20.7%" filterUnits="objectBoundingBox"><feMorphology in="SourceAlpha" operator="dilate" radius="1" result="shadowSpreadOuter1"/><feOffset dy="2" in="shadowSpreadOuter1" result="shadowOffsetOuter1"/><feGaussianBlur in="shadowOffsetOuter1" result="shadowBlurOuter1" stdDeviation="2"/><feComposite in="shadowBlurOuter1" in2="SourceAlpha" operator="out" result="shadowBlurOuter1"/><feColorMatrix in="shadowBlurOuter1" values="0 0 0 0 0 0 0 0 0 0 0 0 0 0 0 0 0 0 0.5 0"/></filter><filter id="i" width="127.1%" height="128.6%" x="-13.6%" y="-10.7%" filterUnits="objectBoundingBox"><feMorphology in="SourceAlpha" operator="dilate" radius="1" result="shadowSpreadOuter1"/><feOffset dy="2" in="shadowSpreadOuter1" result="shadowOffsetOuter1"/><feGaussianBlur in="shadowOffsetOuter1" result="shadowBlurOuter1" stdDeviation="2"/><feComposite in="shadowBlurOuter1" in2="SourceAlpha" operator="out" result="shadowBlurOuter1"/><feColorMatrix in="shadowBlurOuter1" values="0 0 0 0 0 0 0 0 0 0 0 0 0 0 0 0 0 0 0.5 0"/></filter><filter id="e" width="166.1%" height="279.7%" x="-32%" y="-68.8%" filterUnits="objectBoundingBox"><feMorphology in="SourceAlpha" operator="dilate" radius="1" result="shadowSpreadOuter1"/><feOffset dy="2" in="shadowSpreadOuter1" result="shadowOffsetOuter1"/><feGaussianBlur in="shadowOffsetOuter1" result="shadowBlurOuter1" stdDeviation="2"/><feComposite in="shadowBlurOuter1" in2="SourceAlpha" operator="out" result="shadowBlurOuter1"/><feColorMatrix in="shadowBlurOuter1" values="0 0 0 0 0 0 0 0 0 0 0 0 0 0 0 0 0 0 0.5 0"/></filter><filter id="a" width="122.9%" height="136.4%" x="-11.4%" y="-13.6%" filterUnits="objectBoundingBox"><feMorphology in="SourceAlpha" operator="dilate" radius="1" result="shadowSpreadOuter1"/><feOffset dy="2" in="shadowSpreadOuter1" result="shadowOffsetOuter1"/><feGaussianBlur in="shadowOffsetOuter1" result="shadowBlurOuter1" stdDeviation="2"/><feComposite in="shadowBlurOuter1" in2="SourceAlpha" operator="out" result="shadowBlurOuter1"/><feColorMatrix in="shadowBlurOuter1" values="0 0 0 0 0 0 0 0 0 0 0 0 0 0 0 0 0 0 0.5 0"/></filter><path id="j" d="M47.85 14.72a5.25 5.25 0 017.31 1.56l2.74 4.24a6.54 6.54 0 00.84-5.38C57.36 10.82 52 6.65 44.26 8.41 33.62 10.9 27.5 13.81 18.5 20.96c-6.18 5.73-3.92 11.02-1.4 15 .51.81.99 1.52 1.46 2.1l8.73 13.06H6.41A6.43 6.43 0 000 57.56 6.43 6.43 0 006.41 64h32.9a6.4 6.4 0 005.67-3.41 6.47 6.47 0 00-.34-6.62l-13.2-19.74c5.7-3.46 12.38-5.87 17.67-7.82l-2.81-4.35a5.33 5.33 0 011.55-7.34z"/><path id="f" d="M116.38 29.12c5.15 2.78 13.47-2.11 16.81-.03a12.26 12.26 0 013.81-.93c-1.74-3.33-5.22-6.7-13.45-4.46-8.1 2.2-10.1-.11-10.56-2.26-.48-2.15-3.28 4.08 3.4 7.68z"/><path id="d" d="M121.61 37.65a3.35 3.35 0 00-4.02-2.56 3.43 3.43 0 00-2.5 4.11l5.02 22.15a3.37 3.37 0 003.26 2.65h22.28a3.39 3.39 0 003.35-3.43c0-1.89-1.5-3.42-3.35-3.42h-19.62l-4.42-19.5z"/><path id="n" d="M83.7 35.05a4.1 4.1 0 003.24-4.75 4 4 0 00-4.63-3.33l-18.8 3.41-9.17-14.51a3.93 3.93 0 00-5.52-1.2 4.17 4.17 0 00-1.18 5.67l10.6 16.8a3.96 3.96 0 004.05 1.8l21.41-3.9z"/><path id="b" d="M92.33 38.27a59.7 59.7 0 0114.5 5.62c.86 6.46 5.9 7.85 8.85 6.58L113.28 40a4.53 4.53 0 014.35-5.53 4.45 4.45 0 014.35 3.5l1.34 5.85c.23 0 .44.01.68.03 3.03-3.72 2.91-9.19-2.36-12.6a9.87 9.87 0 01-5.59-1.05c-.4-.23-.77-.47-1.1-.71-4.4-.05-9.87.4-20.6-7.42-6.67-4.86-10.88-.36-12.72 4.9l.69-.12a5.23 5.23 0 016.05 4.28 5.3 5.3 0 01-4.24 6.13l-2.84.51 3.52 15.45H61.33A5.36 5.36 0 0056 58.6 5.36 5.36 0 0061.33 64H91.5a5.3 5.3 0 004.17-2.03 5.43 5.43 0 001.02-4.57l-4.37-19.13z"/><ellipse id="l" cx="72.078" cy="15.104" rx="11.516" ry="11.485"/><circle id="h" cx="139" cy="40" r="11"/></defs><g fill="none" fill-rule="nonzero"><g transform="translate(5 1)"><use fill="#000" filter="url(#a)" xlink:href="#b"/><use fill="#6F2232" stroke="#1A1A1D" stroke-width="2" xlink:href="#b"/></g><g transform="translate(5 1)"><use fill="#000" filter="url(#c)" xlink:href="#d"/><use fill="#6F2232" stroke="#1A1A1D" stroke-width="2" xlink:href="#d"/></g><g transform="translate(5 1)"><use fill="#000" filter="url(#e)" xlink:href="#f"/><use fill="#6F2232" stroke="#1A1A1D" stroke-width="2" xlink:href="#f"/></g><g transform="translate(5 1)"><use fill="#000" filter="url(#g)" xlink:href="#h"/><use fill="#6F2232" stroke="#1A1A1D" stroke-width="2" xlink:href="#h"/></g><g transform="translate(5 1)"><use fill="#000" filter="url(#i)" xlink:href="#j"/><use fill="#4E4E50" stroke="#1A1A1D" stroke-width="2" xlink:href="#j"/></g><g transform="rotate(-69.697 75.296 12.013)"><use fill="#000" filter="url(#k)" xlink:href="#l"/><use fill="#4E4E50" stroke="#1A1A1D" stroke-width="2" xlink:href="#l"/></g><g transform="translate(5 1)"><use fill="#000" filter="url(#m)" xlink:href="#n"/><use fill="#4E4E50" stroke="#1A1A1D" stroke-width="2" xlink:href="#n"/></g></g></svg>
